src/img/logo-less.svg

<svg width="43" height="43" viewBox="0 0 43 43" fill="none" xmlns="http://www.w3.org/2000/svg">
<path d="M39.8512 26.8432C39.1922 22.095 37.0048 17.8456 33.8063 14.622C32.3261 13.13 30.6282 11.8586 28.7681 10.8581C31.9856 13.2233 34.078 17.0627 34.078 21.3979C34.078 21.4571 34.0766 21.5148 34.0766 21.5726C34.0444 24.0488 33.3299 26.3592 32.1127 28.3174C31.0665 30.4991 29.6667 32.475 27.9893 34.1683C24.8287 37.3579 20.6818 39.5425 16.0513 40.216C15.0577 40.361 14.0422 40.4365 13.0091 40.4365C12.3282 40.4365 11.6561 40.4025 10.9912 40.3388C13.7792 41.8959 16.95 42.8358 20.3238 42.9793C20.6234 42.9927 20.9229 43.0001 21.2254 43.0001C29.3672 43.0001 36.4364 38.357 39.9959 31.5411C40.0382 30.986 40.0602 30.4265 40.0602 29.8597C40.0602 28.8354 39.9886 27.829 39.8512 26.8432Z" fill="url(#paint0_linear)"/>
<path d="M21.2268 34.4125C20.7548 34.4125 20.2901 34.3858 19.8313 34.3355C18.4213 34.1816 17.0813 33.7967 15.8452 33.218C13.2501 32.2041 10.902 30.6885 8.91474 28.7895C5.49701 25.5215 3.15179 21.1167 2.46649 16.1717C2.32914 15.1859 2.25754 14.178 2.25754 13.1537C2.25754 12.6816 2.27362 12.2124 2.3043 11.7476C1.06813 14.2031 0.284933 16.9309 0.0642925 19.8186C0.0219179 20.3737 0 20.9331 0 21.5C0 29.6154 4.43911 36.6785 10.9911 40.3388C11.6559 40.4024 12.3281 40.4365 13.009 40.4365C14.0421 40.4365 15.0576 40.3595 16.0512 40.2159C20.6803 39.5425 24.8286 37.3579 27.9892 34.1682C29.6666 32.475 31.0664 30.4991 32.1126 28.3174C29.8376 31.9792 25.8134 34.4125 21.2268 34.4125Z" fill="url(#paint1_linear)"/>
<path d="M30.4176 2.11508C30.118 2.10176 29.8185 2.09436 29.516 2.09436C28.483 2.09436 27.4674 2.17133 26.4738 2.3149C21.5803 3.02683 17.2259 5.42904 14.0054 8.91913C12.4084 10.6494 11.0918 12.6475 10.126 14.8396C12.2096 11.2266 15.9634 8.72228 20.3149 8.41294C20.6159 8.39073 20.9213 8.38037 21.2281 8.38037C24.0453 8.38037 26.6506 9.29952 28.7679 10.8566C30.6295 11.8571 32.3259 13.1286 33.8061 14.6205C37.0046 17.8442 39.1921 22.095 39.8511 26.8417C39.9884 27.8275 40.06 28.8354 40.06 29.8597C40.06 30.4251 40.0381 30.986 39.9957 31.5411C41.3575 28.9346 42.205 26.0099 42.4038 22.9061C42.433 22.4414 42.4505 21.9722 42.4505 21.5C42.4505 12.9613 37.5365 5.58593 30.4176 2.11508Z" fill="url(#paint2_linear)"/>
<path d="M23.2432 0.0976869C22.5784 0.0340424 21.9062 0 21.2253 0C12.9681 0 5.81411 4.77482 2.30433 11.7476C2.2751 12.2123 2.25757 12.6815 2.25757 13.1537C2.25757 14.1779 2.33063 15.1859 2.46652 16.1716C3.15182 21.1167 5.49849 25.5214 8.91476 28.7895C10.902 30.69 13.2501 32.2041 15.8452 33.218C11.4996 31.1858 8.46618 26.7677 8.37997 21.6214C8.37851 21.5459 8.37705 21.4704 8.37705 21.3949C8.37705 19.0045 9.01413 16.7637 10.1246 14.838C11.0905 12.646 12.4085 10.6479 14.0041 8.91763C17.2246 5.42754 21.5789 3.02533 26.4725 2.3134C27.4661 2.16835 28.4816 2.09287 29.5147 2.09287C29.8171 2.09287 30.1167 2.10027 30.4162 2.11359C28.2113 1.04051 25.793 0.340424 23.2432 0.0976869Z" fill="url(#paint3_linear)"/>
<defs>
<linearGradient id="paint0_linear" x1="18.6435" y1="41.1709" x2="35.7089" y2="20.4068" gradientUnits="userSpaceOnUse">
<stop offset="0.0284145" stop-color="#A1D4C5"/>
<stop offset="0.3818" stop-color="#62BDA4"/>
<stop offset="0.5727" stop-color="#4CA98C"/>
<stop offset="0.8099" stop-color="#309676"/>
<stop offset="0.9481" stop-color="#238F6E"/>
</linearGradient>
<linearGradient id="paint1_linear" x1="0" y1="26.092" x2="32.112" y2="26.092" gradientUnits="userSpaceOnUse">
<stop offset="0.0141857" stop-color="#7698CC"/>
<stop offset="0.3819" stop-color="#4B6DB1"/>
<stop offset="0.9602" stop-color="#305893"/>
</linearGradient>
<linearGradient id="paint2_linear" x1="41.7544" y1="21.2758" x2="16.6833" y2="6.66927" gradientUnits="userSpaceOnUse">
<stop offset="0.0141857" stop-color="#7698CC"/>
<stop offset="0.3819" stop-color="#4B6DB1"/>
<stop offset="0.9602" stop-color="#305893"/>
</linearGradient>
<linearGradient id="paint3_linear" x1="27.8612" y1="2.84772" x2="7.61434" y2="22.6752" gradientUnits="userSpaceOnUse">
<stop offset="0.035568" stop-color="#F2B065"/>
<stop offset="0.0927934" stop-color="#F2A951"/>
<stop offset="0.1558" stop-color="#F2A341"/>
<stop offset="0.2208" stop-color="#F2A037"/>
<stop offset="0.29" stop-color="#F29E34"/>
<stop offset="0.9366" stop-color="#E1821E"/>
</linearGradient>
</defs>
</svg>

<svg width="43" height="43" viewBox="0 0 43 43" xmlns="http://www.w3.org/2000/svg" fill="none"><path d="M39.851 26.843c-.659-4.748-2.846-8.998-6.045-12.221-1.48-1.492-3.178-2.763-5.038-3.764 3.218 2.365 5.31 6.205 5.31 10.54l-.001.175c-.032 2.476-.747 4.787-1.964 6.745-1.046 2.182-2.446 4.158-4.123 5.851-3.161 3.19-7.308 5.374-11.938 6.048-.994.145-2.009.221-3.042.221-.681 0-1.353-.034-2.018-.098 2.788 1.557 5.959 2.497 9.333 2.641.3.013.599.021.902.021 8.142 0 15.211-4.643 18.77-11.459.042-.555.064-1.115.064-1.681 0-1.024-.072-2.031-.209-3.017z" fill="url(#a)"/><path d="M21.227 34.413c-.472 0-.937-.027-1.396-.077-1.41-.154-2.75-.539-3.986-1.117-2.595-1.014-4.943-2.53-6.93-4.429-3.418-3.268-5.763-7.673-6.448-12.618-.137-.986-.209-1.994-.209-3.018 0-.472.016-.941.047-1.406-1.236 2.455-2.019 5.183-2.24 8.071-.042.555-.064 1.114-.064 1.681 0 8.115 4.439 15.178 10.991 18.839.665.064 1.337.098 2.018.098 1.033 0 2.049-.077 3.042-.221 4.629-.673 8.777-2.858 11.938-6.048 1.677-1.693 3.077-3.669 4.123-5.851-2.275 3.662-6.299 6.095-10.886 6.095z" fill="url(#b)"/><path d="M30.418 2.115c-.3-.013-.599-.021-.902-.021-1.033 0-2.049.077-3.042.221-4.893.712-9.248 3.114-12.468 6.604-1.597 1.73-2.914 3.728-3.879 5.92 2.084-3.613 5.837-6.117 10.189-6.427.301-.022.606-.033.913-.033 2.817 0 5.422.919 7.54 2.476 1.862 1.001 3.558 2.272 5.038 3.764 3.199 3.224 5.386 7.474 6.045 12.221.137.986.209 1.994.209 3.018 0 .565-.022 1.126-.064 1.681 1.362-2.607 2.209-5.531 2.408-8.635.029-.465.047-.934.047-1.406 0-8.539-4.914-15.914-12.033-19.385z" fill="url(#c)"/><path d="M23.243.098c-.665-.064-1.337-.098-2.018-.098-8.257 0-15.411 4.775-18.921 11.748-.029.465-.047.934-.047 1.406 0 1.024.073 2.032.209 3.018.685 4.945 3.032 9.35 6.448 12.618 1.987 1.901 4.335 3.415 6.93 4.429-4.346-2.032-7.379-6.45-7.465-11.597l-.003-.227c0-2.39.637-4.631 1.748-6.557.966-2.192 2.284-4.19 3.88-5.92 3.22-3.49 7.575-5.892 12.468-6.604.994-.145 2.009-.221 3.042-.221.302 0 .602.007.901.021-2.205-1.073-4.623-1.773-7.173-2.016z" fill="url(#d)"/><defs><linearGradient id="a" x1="18.643" y1="41.171" x2="35.709" y2="20.407" gradientUnits="userSpaceOnUse"><stop offset=".028" stop-color="#A1D4C5"/><stop offset=".382" stop-color="#62BDA4"/><stop offset=".573" stop-color="#4CA98C"/><stop offset=".81" stop-color="#309676"/><stop offset=".948" stop-color="#238F6E"/></linearGradient><linearGradient id="b" y1="26.092" x2="32.112" y2="26.092" gradientUnits="userSpaceOnUse"><stop offset=".014" stop-color="#7698CC"/><stop offset=".382" stop-color="#4B6DB1"/><stop offset=".96" stop-color="#305893"/></linearGradient><linearGradient id="c" x1="41.754" y1="21.276" x2="16.683" y2="6.669" gradientUnits="userSpaceOnUse"><stop offset=".014" stop-color="#7698CC"/><stop offset=".382" stop-color="#4B6DB1"/><stop offset=".96" stop-color="#305893"/></linearGradient><linearGradient id="d" x1="27.861" y1="2.848" x2="7.614" y2="22.675" gradientUnits="userSpaceOnUse"><stop offset=".036" stop-color="#F2B065"/><stop offset=".093" stop-color="#F2A951"/><stop offset=".156" stop-color="#F2A341"/><stop offset=".221" stop-color="#F2A037"/><stop offset=".29" stop-color="#F29E34"/><stop offset=".937" stop-color="#E1821E"/></linearGradient></defs></svg>
